X: 4260
M: 6/8
L: 1/8
K: Am
|: B |\
cdc cec | ded ded | cdc edc | Bdg dBG |\
cdc edc | deg a2g | ege deg | edB A2 :|


